X: 1
T: Majas brudvals
T: Maja's bridal waltz
C: Roger Tallroth
D: "P\aa Tre Man Hand"
M: 3/4
L: 1/8
K: A
|: EA c2 cB- | BA Bd c2 | e=g- gf df | e2 Bd c2 \
|  EA c2 cB- | BA Bd c2 | Bd cA BF | EG A4 :|
|: a2 gb a2 | g2 fa g2 | fc fa gf | fe Bd c2 \
|  Bc de fa | gb a2 e2- | ef- fd cA | BG A4 :|
